static/assets/images/protocols/aura-finance-mono.svg

<svg width="405" height="227" viewBox="0 0 405 227" fill="none" xmlns="http://www.w3.org/2000/svg">
<path d="M340.226 96.4961C336.738 95.7529 333.104 95.037 329.333 94.3494C328.257 85.7026 326.372 77.3172 323.763 69.2782C372.783 77.1398 404.48 89.6413 404.48 103.719C404.48 103.876 404.476 104.033 404.467 104.19C403.299 127.77 313.206 146.81 202.239 146.81C90.546 146.81 0 127.519 0 103.726C0 103.579 0.00337673 103.433 0.0102234 103.287C0.659603 89.2214 32.9469 76.7692 82.4385 69.0053C79.8126 77.0338 77.9113 85.4097 76.8169 94.0481C72.4455 94.827 68.2533 95.6437 64.2538 96.4961C59.0124 97.6131 54.2172 98.7657 49.8667 99.9362V99.9425C45.2258 101.191 41.0916 102.459 37.4645 103.723C44.4916 106.172 53.4222 108.634 64.2538 110.942C67.9225 111.724 71.7535 112.477 75.7362 113.196V113.202C109.205 119.254 153.373 123.039 202.239 123.039C251.907 123.039 296.721 119.129 330.379 112.903V112.897C333.777 112.269 337.063 111.617 340.226 110.942C351.062 108.633 359.996 106.17 367.024 103.719C359.996 101.269 351.062 98.8045 340.226 96.4961Z" fill="black"/>
<path d="M354.604 29.4077C354.609 29.2954 354.612 29.183 354.612 29.0707C354.612 16.3677 320.757 5.36317 271.382 0C283.132 7.76185 293.573 17.4668 302.281 28.6781C302.921 28.8072 303.555 28.9384 304.183 29.0707C303.727 29.1673 303.267 29.2618 302.805 29.3573L302.809 29.3626C277.652 34.5168 242.548 37.8592 203.163 37.8592C163.681 37.8592 128.502 34.5011 103.332 29.3248L103.337 29.3185C102.936 29.2366 102.539 29.1536 102.144 29.0707C102.688 28.9563 103.238 28.8429 103.791 28.7295C112.497 17.5098 122.936 7.79753 134.688 0.0283356C85.4521 5.402 51.7145 16.3897 51.7145 29.0707V29.0749L51.7142 29.077C51.7142 44.945 125.036 57.5578 174.457 61.045C185.514 61.825 202.831 61.8806 202.831 61.8806C208.943 62.1452 220.074 61.8334 231.087 61.0765C280.777 57.6617 353.874 45.1875 354.604 29.4077Z" fill="black"/>
<path d="M51.7145 193.746C51.7145 185.446 66.1666 177.872 89.9561 172.122C93.7513 179.708 98.2364 186.864 103.325 193.5C102.929 193.581 102.535 193.663 102.144 193.746C102.684 193.859 103.227 193.972 103.776 194.084C103.811 194.13 103.846 194.176 103.882 194.222H104.426C129.515 199.272 164.25 202.533 203.163 202.533C242.076 202.533 276.811 199.272 301.9 194.222H302.229C302.252 194.193 302.274 194.165 302.296 194.135C302.931 194.007 303.56 193.877 304.183 193.746C303.731 193.65 303.275 193.556 302.816 193.462C307.902 186.823 312.385 179.665 316.179 172.076C340.082 177.831 354.612 185.424 354.612 193.746C354.612 193.905 354.607 194.063 354.596 194.222C353.427 211.983 286.076 226.304 203.163 226.304C120.25 226.304 52.8986 211.983 51.7297 194.222C51.7191 194.063 51.7145 193.905 51.7145 193.746Z" fill="black"/>
</svg>

<svg xmlns="http://www.w3.org/2000/svg" fill="none" viewBox="0 0 405 227"><path fill="#000" d="M340.226 96.496a376 376 0 0 0-10.893-2.147 135.3 135.3 0 0 0-5.57-25.07c49.02 7.86 80.717 20.362 80.717 34.44q0 .235-.013.471c-1.168 23.58-91.261 42.62-202.228 42.62C90.546 146.81 0 127.519 0 103.726q0-.22.01-.439C.66 89.221 32.947 76.769 82.44 69.005a135 135 0 0 0-5.622 25.043 381 381 0 0 0-12.563 2.448 281 281 0 0 0-14.387 3.44v.006c-4.641 1.249-8.775 2.517-12.402 3.781 7.027 2.449 15.957 4.911 26.789 7.219 3.668.782 7.5 1.535 11.482 2.254v.006c33.469 6.052 77.637 9.837 126.503 9.837 49.668 0 94.482-3.91 128.14-10.136v-.006c3.398-.628 6.684-1.28 9.847-1.955 10.836-2.309 19.77-4.772 26.798-7.223-7.028-2.45-15.962-4.914-26.798-7.223M354.604 29.408q.008-.17.008-.337c0-12.703-33.855-23.708-83.23-29.071 11.75 7.762 22.191 17.467 30.899 28.678q.96.194 1.902.393-.685.143-1.378.286l.004.006c-25.157 5.154-60.261 8.496-99.646 8.496-39.482 0-74.661-3.358-99.831-8.534l.005-.006q-.601-.123-1.193-.248.817-.172 1.647-.341c8.706-11.22 19.145-20.932 30.897-28.702C85.452 5.402 51.715 16.39 51.715 29.071v.006c0 15.868 73.321 28.48 122.742 31.968 11.057.78 28.374.836 28.374.836 6.112.264 17.243-.048 28.256-.804 49.69-3.415 122.787-15.89 123.517-31.67M51.715 193.746c0-8.3 14.452-15.874 38.241-21.624a132.7 132.7 0 0 0 13.369 21.378q-.594.121-1.181.246.81.17 1.632.338l.106.138h.544c25.089 5.05 59.824 8.311 98.737 8.311s73.648-3.261 98.737-8.311h.329l.067-.087q.952-.192 1.887-.389-.678-.143-1.367-.284a133 133 0 0 0 13.363-21.386c23.903 5.755 38.433 13.348 38.433 21.67q0 .238-.016.476c-1.169 17.761-68.52 32.082-151.433 32.082S52.899 211.983 51.73 194.222a7 7 0 0 1-.015-.476"/></svg>
